src/4-icons/receive.svg

<svg width="260" height="260" viewBox="0 0 260 260" fill="none" xmlns="http://www.w3.org/2000/svg">
<path d="M161.797 208.41V250.214" stroke="black" stroke-width="8" stroke-linecap="round" stroke-linejoin="round"/>
<path d="M170.784 105.409L171.144 122.812L171.333 132.099C169.547 137.43 166.735 142.361 163.057 146.613" stroke="black" stroke-width="8" stroke-linecap="round" stroke-linejoin="round"/>
<path d="M153.221 208.41C176.572 202.512 183.589 195.735 196.404 152.182C197.804 147.424 198.553 146.104 198.033 138.797C197.32 132.239 196.617 125.675 195.924 119.104L192.686 98.8223" stroke="black" stroke-width="8" stroke-linecap="round" stroke-linejoin="round"/>
<path d="M92.5637 91.4947L95.6425 51.84C95.7638 50.2724 95.5596 48.6967 95.0429 47.2117C94.5261 45.7268 93.708 44.3648 92.6397 43.2111C91.5715 42.0574 90.2763 41.1371 88.8354 40.5079C87.3945 39.8787 85.8391 39.5541 84.2669 39.5547V39.5547C81.4486 39.5544 78.7301 40.5984 76.6366 42.4852C74.5431 44.372 73.223 46.9676 72.9312 49.7708C70.7221 70.8626 65.8839 117.805 65.8839 123.862C65.8839 144.484 63.125 185.669 84.3069 206.081L81.5979 250.214" stroke="black" stroke-width="8" stroke-linecap="round" stroke-linejoin="round"/>
<path d="M118.974 99.9616L119.634 61.9762L120.153 31.9878C120.18 30.4654 119.903 28.9529 119.339 27.5387C118.774 26.1244 117.934 24.8368 116.867 23.7508C115.799 22.6649 114.526 21.8024 113.122 21.2138C111.718 20.6251 110.21 20.322 108.688 20.3223V20.3223C105.803 20.3238 103.025 21.4138 100.909 23.3744C98.7924 25.335 97.4938 28.0218 97.2722 30.8982L94.4433 67.2342L91.9043 99.9616" stroke="black" stroke-width="8" stroke-linecap="round" stroke-linejoin="round"/>
<path d="M146.143 91.4949L144.874 19.3826C144.811 16.1776 143.493 13.1253 141.203 10.8821C138.913 8.63891 135.834 7.38398 132.628 7.38721C129.423 7.38655 126.346 8.64231 124.057 10.885C121.767 13.1276 120.448 16.1785 120.383 19.3826L119.603 63.6656L119.063 94.4937" stroke="black" stroke-width="8" stroke-linecap="round" stroke-linejoin="round"/>
<path d="M173.663 95.8433L172.923 86.127L168.734 31.8279C168.505 28.857 167.163 26.0822 164.976 24.0583C162.789 22.0345 159.919 20.9108 156.939 20.9121V20.9121C155.368 20.9171 153.813 21.2349 152.366 21.847C150.919 22.4591 149.608 23.3533 148.51 24.4773C147.412 25.6013 146.549 26.9327 145.971 28.3938C145.393 29.8549 145.112 31.4165 145.144 32.9875L145.743 67.0344L146.323 99.9517" stroke="black" stroke-width="8" stroke-linecap="round" stroke-linejoin="round"/>
<path d="M195.924 119.104L191.925 94.3538C191.666 92.6784 190.757 91.1729 189.394 90.1641C188.032 89.1554 186.326 88.7248 184.648 88.9658C180.737 89.5504 177.174 91.5387 174.622 94.5594C172.07 97.58 170.706 101.426 170.783 105.38L171.143 122.783" stroke="black" stroke-width="8" stroke-linecap="round" stroke-linejoin="round"/>
</svg>

<svg width="260" height="260" fill="none" xmlns="http://www.w3.org/2000/svg"><path d="M161.797 208.41v41.804m8.987-144.805.36 17.403.189 9.287a43.13 43.13 0 0 1-8.276 14.514m-9.836 61.797c23.351-5.898 30.368-12.675 43.183-56.228 1.4-4.758 2.149-6.078 1.629-13.385a6147.178 6147.178 0 0 1-2.109-19.693l-3.238-20.282M92.564 91.495l3.079-39.655a11.406 11.406 0 0 0-11.376-12.285v0A11.395 11.395 0 0 0 72.93 49.77c-2.209 21.092-7.047 68.034-7.047 74.091 0 20.622-2.759 61.807 18.423 82.219l-2.71 44.133" stroke="#000" stroke-width="8" stroke-linecap="round" stroke-linejoin="round"/><path d="m118.974 99.962.66-37.986.519-29.988a11.462 11.462 0 0 0-11.465-11.666v0a11.454 11.454 0 0 0-11.416 10.576l-2.829 36.336-2.539 32.728" stroke="#000" stroke-width="8" stroke-linecap="round" stroke-linejoin="round"/><path d="m146.143 91.495-1.269-72.112a12.236 12.236 0 0 0-12.246-11.996 12.243 12.243 0 0 0-12.245 11.996l-.78 44.283-.54 30.828m54.6 1.349-.74-9.716-4.189-54.3a11.824 11.824 0 0 0-11.795-10.915v0a11.836 11.836 0 0 0-11.795 12.075l.599 34.047.58 32.918" stroke="#000" stroke-width="8" stroke-linecap="round" stroke-linejoin="round"/><path d="m195.924 119.104-3.999-24.75a6.435 6.435 0 0 0-7.277-5.388 16.273 16.273 0 0 0-13.865 16.414l.36 17.403" stroke="#000" stroke-width="8" stroke-linecap="round" stroke-linejoin="round"/></svg>
